IMG/facebook.svg

<svg viewBox="0 0 131.48 131.48" xmlns="http://www.w3.org/2000/svg"><g fill="#fff" transform="translate(-65.65 -57.9)"><path d="m131.38 189.38a65.74 65.74 0 1 1 65.74-65.74 65.81 65.81 0 0 1 -65.74 65.74zm0-125.48a59.74 59.74 0 1 0 59.74 59.74 59.8 59.8 0 0 0 -59.74-59.74z"/><path d="m121.23 161.53h15.71v-38.17h10.17v-12.64h-10.05v-11.72h11.41v-13.47h-13.87s-12.86-1-12.86 11.74-.17 13-.17 13h-8.17v13h8.09z"/></g></svg>

<svg id="Calque_1" data-name="Calque 1" xmlns="http://www.w3.org/2000/svg" viewBox="0 0 131.48 131.48"><defs><style>.cls-1{fill:#fff;}</style></defs><path class="cls-1" d="M131.38,189.38a65.74,65.74,0,1,1,65.74-65.74A65.81,65.81,0,0,1,131.38,189.38Zm0-125.48a59.74,59.74,0,1,0,59.74,59.74A59.8,59.8,0,0,0,131.38,63.9Z" transform="translate(-65.65 -57.9)"/><path class="cls-1" d="M121.23,161.53h15.71V123.36h10.17V110.72H137.06V99h11.41V85.53H134.6s-12.86-1-12.86,11.74-.17,13-.17,13H113.4v13h8.09Z" transform="translate(-65.65 -57.9)"/></svg>
